src/images/boomtown-logo.svg

<svg width="75px" height="88px" viewBox="0 0 75 88" version="1.1" xmlns="http://www.w3.org/2000/svg" xmlns:xlink="http://www.w3.org/1999/xlink">
    <!-- Generator: Sketch 44.1 (41455) - http://www.bohemiancoding.com/sketch -->
    <desc>Created with Sketch.</desc>
    <defs></defs>
    <g id="Boomtown-Prototypes" stroke="none" stroke-width="1" fill="none" fill-rule="evenodd">
        <g id="Desktop-HD-Copy" transform="translate(-683.000000, -204.000000)" fill="#000">
            <path d="M735.185497,204.749061 C741.388052,205.675146 746.319104,207.534259 749.978728,210.326416 C751.779078,211.700016 753.253996,213.257352 754.403485,214.998429 L721.981716,247.885806 L707.431071,232.503487 L735.185497,204.749061 Z M728.625013,204.136855 L703.944371,228.817497 L694.814499,219.165788 L697.439347,204 L725.33583,204.060252 C726.461425,204.06436 727.557819,204.089894 728.625013,204.136855 Z M683,287.427339 L692.798383,230.814457 L715.329581,254.633474 L683,287.427339 Z M685.724251,291.726306 L718.738839,258.237595 L743.36016,284.266202 C743.111051,284.466827 742.856968,284.663968 742.597909,284.857625 C736.472301,289.436768 728.087373,291.726306 717.442873,291.726306 L685.724251,291.726306 Z M756.621796,219.810601 C757.320344,222.203537 757.576302,224.846374 757.389673,227.739124 C756.787154,236.977746 751.726072,243.52502 742.206274,247.38114 C745.620547,248.586178 748.281632,250.765255 750.189609,253.918437 C752.097585,257.071619 752.910973,260.857389 752.629798,265.275861 C752.336342,269.698656 751.285424,273.590917 749.477028,276.952673 L725.390975,251.489928 L756.621796,219.810601 Z" id="Combined-Shape"></path>
        </g>
    </g>
</svg>

<?xml version="1.0" encoding="utf-8"?>
<!-- Generator: Adobe Illustrator 16.0.4, SVG Export Plug-In . SVG Version: 6.00 Build 0)  -->
<!DOCTYPE svg PUBLIC "-//W3C//DTD SVG 1.1//EN" "http://www.w3.org/Graphics/SVG/1.1/DTD/svg11.dtd">
<svg version="1.1" id="Layer_1" xmlns="http://www.w3.org/2000/svg" xmlns:xlink="http://www.w3.org/1999/xlink" x="0px" y="0px"
	 width="75px" height="88px" viewBox="0 0 75 88" enable-background="new 0 0 75 88" xml:space="preserve">
<desc>Created with Sketch.</desc>
<g id="Boomtown-Prototypes">
	<g id="Desktop-HD-Copy" transform="translate(-683.000000, -204.000000)">
		<path id="Combined-Shape" fill="#263238" d="M735.186,204.749c6.203,0.926,11.134,2.785,14.793,5.577
			c1.801,1.374,3.275,2.931,4.425,4.672l-32.422,32.887l-14.55-15.382L735.186,204.749z M728.625,204.137l-24.681,24.681
			l-9.13-9.651L697.439,204l27.896,0.06C726.461,204.064,727.558,204.09,728.625,204.137z M683,287.428l9.798-56.613l22.531,23.818
			L683,287.428z M685.724,291.727l33.015-33.488l24.622,26.027c-0.249,0.201-0.503,0.398-0.763,0.592
			c-6.125,4.579-14.51,6.869-25.155,6.869H685.724z M756.622,219.811c0.698,2.393,0.954,5.036,0.768,7.929
			c-0.603,9.238-5.663,15.786-15.184,19.642c3.415,1.205,6.075,3.385,7.983,6.537c1.908,3.154,2.722,6.939,2.44,11.357
			c-0.294,4.424-1.345,8.315-3.153,11.678l-24.086-25.463L756.622,219.811z"/>
	</g>
</g>
</svg>
